X:184
T:Lady Ann Hope 
T:Miss Hope's Strathspey 
C:John Pringle 
R:Strathspey
B:Kerr's Merry Melodies, Book 1
Z:Nigel Gatherer
N:First published 1800-1
M:4/4
L:1/8
K:G
D|G<GG>B A>G E2|c<cc>e d>cB<g|B<BB>G c>AB>G|E>A G/F/E/D/ G2 G:|
d|g2 d>g B>gd>f|g2 b>g e2 e>f|(3gab (3agf (3efg (3dcB|\
(3cde (3def (3ged (3cBA|
G<g d>g B>gd>f|g<gb>g e2 e>f|(3gab (3agf (3gfe (3dcB|\
cde (3def g2 g<b|]
<end>
<start>
